!!!SOCIAL_FUNCTION:	songs of the shuffling-feet dance
!!!PDT:	1918

Specific Region: Dakotas, Minnesota, Montana, Nebraska
!!!REG: Dakotas and Montana
!!!LING_GROUP: Siouan
!!!LANG: Tone
!!!OTL@ENG: Song of the Shuffling-feet Dance (b)
!!!ONM: No. 202
**kern
*Imale
*clefF4
*k[b-e-]
*M2/4
*MM63
8.f
16d
=1
4f
4f
=2
8.f
16d
12c
12d
12c
=3
16B-
8.B-
8.F
16F
=4
2F
=5
8.B-
[16B-
12B-]
12d
12c
=6
16B-
8.B-
12d
12d
12c
=7
8.B-
16F
16F
16F
16D
16F
=8||
*M3/4
2.F
=9||
*M2/4
8.F
16D
12C
12D
12C
=10
8.BB-
16BB-
16BB-
8.FF
=11
8.BB-
[16BB-
12BB-]
12D
12C
=12
16BB-
8.BB-
12D
12D
12C
=13
12BB-
12BB-
12FF
16FF
16FF
16DD
16FF
=14
4.FF
8FF
=15
4FF
4FF
==
*-
!!!CNT: Native American -- Sioux
!!!MRD: 1911/07//-1914///
!!!OCL: Frances Densmore
!!!YOR1: Teton Sioux Music, Bulletin 61,
!!!YOR2: Bureau of American Ethnology, Smithsonian Institution
!!!PPR: Government Printing Office
!!!PPP: Washington, D.C.
!!!PDT: 1918///
!!!ENC: Craig Stuart Sapp
!!!END: 2002/03/25/
!!!EEV: 2002/03/31/
!!!AGN: Dance Song/Song of the Shuffling-feet Dance
!!!MPN@@SIO: Hanghe'-pikte
!!!MPN@ENG: Kills-at-Night
!!!TXO: Teton Sioux
!!!MLC: Standing Rock Reservation, South Dakota, United States of America
!!!ARL: 45.9/-100.7#
!!!catalog: Catalogue No. 592
!!!PPG: 479
!!!EFL: 207/245
!!!VTS: 800077875
